svg/fluentui-system-icons/ic_fluent_bookmark_16_regular.svg

<svg width="16" height="16" viewBox="0 0 16 16" fill="none" xmlns="http://www.w3.org/2000/svg">
<path d="M3.7796 13.9178C3.44735 14.1396 3.00195 13.9015 3.00195 13.5019V4.01076C3.00195 2.90759 3.8952 2.01274 4.99837 2.01076L10.9984 2C12.1029 1.99803 13 2.89186 13.002 3.99643V13.5019C13.002 13.9015 12.5566 14.1396 12.2243 13.9178L8.00195 11.0985L3.7796 13.9178ZM12.002 4.00001L11.995 3.88161C11.9364 3.38437 11.513 2.99909 11.0002 3.00001L5.00016 3.01076C4.44858 3.01175 4.00195 3.45917 4.00195 4.01076V12.5669L7.72431 10.0815C7.89239 9.96926 8.11151 9.96926 8.2796 10.0815L12.002 12.5669V4.00001Z" fill="#212121"/>
</svg>

<svg xmlns="http://www.w3.org/2000/svg" width="16" height="16"><path d="M3.78 13.918a.5.5 0 0 1-.778-.416V4.01a2 2 0 0 1 1.996-2l6-.011a2 2 0 0 1 2.004 1.996v9.506a.5.5 0 0 1-.778.416l-4.222-2.82-4.222 2.82ZM12.002 4l-.007-.118A1 1 0 0 0 11 3l-6 .01a1 1 0 0 0-.998 1v8.557l3.722-2.486a.5.5 0 0 1 .556 0l3.722 2.486V4Z"/></svg>
